packages/sources/icons/src/vitamix/award-line.svg

<svg width="16" height="16" viewBox="0 0 16 16" fill="none" xmlns="http://www.w3.org/2000/svg">
<path fill-rule="evenodd" clip-rule="evenodd" d="M11.3333 10.164V14.7447C11.3334 14.8647 11.2688 14.9755 11.1644 15.0347C11.0599 15.0939 10.9317 15.0924 10.8287 15.0307L8.00002 13.3333L5.17135 15.0307C5.06825 15.0925 4.93988 15.0939 4.83538 15.0346C4.73087 14.9752 4.66642 14.8642 4.66668 14.744V10.164C2.89886 8.74862 2.21765 6.37114 2.96768 4.23432C3.7177 2.09751 5.73539 0.667343 8.00002 0.667343C10.2646 0.667343 12.2823 2.09751 13.0324 4.23432C13.7824 6.37114 13.1012 8.74862 11.3333 10.164ZM6 10.9453V12.9787L8 11.7787L10 12.9787V10.9453C9.36457 11.2023 8.68544 11.3341 8 11.3333C7.31456 11.3341 6.63544 11.2023 6 10.9453ZM12 6C12 8.20914 10.2091 10 8 10C5.79086 10 4 8.20914 4 6C4 3.79086 5.79086 2 8 2C10.2091 2 12 3.79086 12 6Z" fill="#001018"/>
</svg>

<svg width="16" height="16" fill="none" xmlns="http://www.w3.org/2000/svg"><path fill-rule="evenodd" clip-rule="evenodd" d="M11.333 10.164v4.58a.333.333 0 0 1-.504.287L8 13.333l-2.829 1.698a.333.333 0 0 1-.504-.287v-4.58a5.333 5.333 0 1 1 6.666 0zM6 10.945v2.034l2-1.2 2 1.2v-2.034a5.318 5.318 0 0 1-2 .388 5.318 5.318 0 0 1-2-.388zM12 6a4 4 0 1 1-8 0 4 4 0 0 1 8 0z" fill="#001018"/></svg>
